symbols/web/casino/materialsymbolsoutlined/casino_wght300grad200_48px.svg

<svg xmlns="http://www.w3.org/2000/svg" height="48" width="48"><path d="M15.65 34.8q1 0 1.7-.725t.7-1.725q0-1-.725-1.7t-1.725-.7q-1 0-1.7.725t-.7 1.725q0 1 .725 1.7t1.725.7Zm0-16.75q1 0 1.7-.725t.7-1.725q0-1-.725-1.7t-1.725-.7q-1 0-1.7.725t-.7 1.725q0 1 .725 1.7t1.725.7ZM24 26.4q1 0 1.7-.7t.7-1.7q0-1-.7-1.7t-1.7-.7q-1 0-1.7.7t-.7 1.7q0 1 .7 1.7t1.7.7Zm8.35 8.4q1.05 0 1.75-.725t.7-1.725q0-1-.725-1.7t-1.725-.7q-1.05 0-1.725.725T29.95 32.4q0 1 .7 1.7t1.7.7Zm.05-16.75q1 0 1.7-.725t.7-1.725q0-1-.725-1.7t-1.725-.7q-1 0-1.7.725t-.7 1.725q0 1 .725 1.7t1.725.7ZM9.9 41.65q-1.45 0-2.5-1.05t-1.05-2.5V9.9q0-1.45 1.05-2.5t2.5-1.05h28.2q1.45 0 2.5 1.05t1.05 2.5v28.2q0 1.45-1.05 2.5t-2.5 1.05Zm0-2.9h28.2q.25 0 .45-.2t.2-.45V9.9q0-.25-.2-.45t-.45-.2H9.9q-.25 0-.45.2t-.2.45v28.2q0 .25.2.45t.45.2Zm-.65-29.5v29.5-29.5Z"/></svg>

<svg xmlns="http://www.w3.org/2000/svg" height="48" width="48"><path d="M15.65 34.8Q16.65 34.8 17.35 34.075Q18.05 33.35 18.05 32.35Q18.05 31.35 17.325 30.65Q16.6 29.95 15.6 29.95Q14.6 29.95 13.9 30.675Q13.2 31.4 13.2 32.4Q13.2 33.4 13.925 34.1Q14.65 34.8 15.65 34.8ZM15.65 18.05Q16.65 18.05 17.35 17.325Q18.05 16.6 18.05 15.6Q18.05 14.6 17.325 13.9Q16.6 13.2 15.6 13.2Q14.6 13.2 13.9 13.925Q13.2 14.65 13.2 15.65Q13.2 16.65 13.925 17.35Q14.65 18.05 15.65 18.05ZM24 26.4Q25 26.4 25.7 25.7Q26.4 25 26.4 24Q26.4 23 25.7 22.3Q25 21.6 24 21.6Q23 21.6 22.3 22.3Q21.6 23 21.6 24Q21.6 25 22.3 25.7Q23 26.4 24 26.4ZM32.35 34.8Q33.4 34.8 34.1 34.075Q34.8 33.35 34.8 32.35Q34.8 31.35 34.075 30.65Q33.35 29.95 32.35 29.95Q31.3 29.95 30.625 30.675Q29.95 31.4 29.95 32.4Q29.95 33.4 30.65 34.1Q31.35 34.8 32.35 34.8ZM32.4 18.05Q33.4 18.05 34.1 17.325Q34.8 16.6 34.8 15.6Q34.8 14.6 34.075 13.9Q33.35 13.2 32.35 13.2Q31.35 13.2 30.65 13.925Q29.95 14.65 29.95 15.65Q29.95 16.65 30.675 17.35Q31.4 18.05 32.4 18.05ZM9.75 41.8Q8.3 41.8 7.25 40.75Q6.2 39.7 6.2 38.25V9.75Q6.2 8.3 7.25 7.25Q8.3 6.2 9.75 6.2H38.25Q39.7 6.2 40.75 7.25Q41.8 8.3 41.8 9.75V38.25Q41.8 39.7 40.75 40.75Q39.7 41.8 38.25 41.8ZM9.75 38.9H38.25Q38.55 38.9 38.725 38.725Q38.9 38.55 38.9 38.25V9.75Q38.9 9.45 38.725 9.275Q38.55 9.1 38.25 9.1H9.75Q9.45 9.1 9.275 9.275Q9.1 9.45 9.1 9.75V38.25Q9.1 38.55 9.275 38.725Q9.45 38.9 9.75 38.9ZM9.1 38.9Q9.1 38.9 9.1 38.725Q9.1 38.55 9.1 38.25V9.75Q9.1 9.45 9.1 9.275Q9.1 9.1 9.1 9.1Q9.1 9.1 9.1 9.275Q9.1 9.45 9.1 9.75V38.25Q9.1 38.55 9.1 38.725Q9.1 38.9 9.1 38.9Z"/></svg>
